icons/mortar-board.svg

<svg xmlns="http://www.w3.org/2000/svg" viewBox="0 0 24 24"><path fill="#a1887f" d="m21 7-2 6 2 6v2H3v-2l2-6-2-6V5h12.7l1.5-4 2.3.8L18.3 5H21z"/></svg>

<svg xmlns="http://www.w3.org/2000/svg" viewBox="0 0 24 24" width="16px" height="16px">
    <path fill="#A1887F" d="M21 7L19 13L21 19V21H3V19L5 13L3 7V5H15.7L17.2 1L19.5 1.8L18.3 5H21V7Z" />
</svg>
